!!!OTL: Der Maedchenmoerder (Halewijn - Ulinger) Hannchen, komm mit mir in Wald,
!!!ARE: Europa, Mitteleuropa, Deutschland (), Brandenburg
!!!YOR: 2, S. 112
!!    1857 aufgezeichnet
!!!SCT: Q0041a
!!!YEM: Copyright 1995, estate of Helmut Schaffrath.
**kern
*ICvox
*Ivox
*M4/4
*k[f#]
*G:
{4dd
=1
4.dd
8cc
4b
4b
=2
4b
4g
4g}
{4b
=3
4a
8a
8a
8a
8b
8cc
8ee
=4
4dd
4f#
4g}
{4dd
=5
4.dd
8cc
4b
4b
=6
4b
4g
4g}
{4b
=7
4a
8a
8a
8a
8b
8cc
8ee
=8
4dd
4f#
4g}
{4dd
=9
4gg
4gg
4ff#
4gg
=10
4.aa
8ff#
4gg}
{4dd
=11
4dd
8gg
8gg
4ee
8dd
8cc
=12
4b
4a
4g}
==
!!!AGN: Ballade, Verfuehrung, Mord, Mordversuch bzw. Rache
!! Eingeklammerte Note kodiert.
!!!ONB: ESAC (Essen Associative Code) Database: BALLADE
!!!AMT: simple quadruple
!!!AIN: vox
!!!EED: Helmut Schaffrath
!!!EEV: 1.0
*-
